src/assets/icons/ic-edit-timeline.svg

<svg width="32" height="32" xmlns="http://www.w3.org/2000/svg">
  <path fill-rule="evenodd" clip-rule="evenodd"
    d="M6 4h2v24H6v-2H4v-2h2v-4H4v-2h2v-4H4v-2h2V8H4V6h2V4zm22 4V6H10v2h18zm-2 6v-2H10v2h16zm2 6v-2H10v2h18zm-2 6v-2H10v2h16z" />
</svg>

<svg width="32" height="32" viewBox="0 0 32 32" fill="none" xmlns="http://www.w3.org/2000/svg">
<path fill-rule="evenodd" clip-rule="evenodd" d="M6 4H8V6V8V12V14V18V20V24V26V28H6V26H4V24H6V20H4V18H6V14H4V12H6V8H4V6H6V4ZM28 8V6H10L10 8H28ZM26 14V12H10V14H26ZM28 20V18H10L10 20H28ZM26 26V24H10V26H26Z" fill="#52535A"/>
</svg>
